X: 30536
T: On The Dark Lonely Strand
R: jig
M: 6/8
K: Gmajor
|:B/c/S|:dde c>BA|B>AG A2 B/A/|G>A B/c/ dde|c>BA B>AG|AGG G2:|
|:d/c/|BGB def|g>ag fdB|[M:3/28]c>A d/c/|[M:6/8] BGB def|
g>ag fdB|c>A B/c/ dde|cAA BGG|B/A/ GG G2:|

